X:214
T: ICH DENK AN EUCH IHR HIMMLISCH SCHOENEN TAGE
N: B0252
O: Europa, Mitteleuropa, Deutschland, Nassau
R: Stimmungs - Lied, Sehnsucht
M: 4/4
L: 1/16
K: C
G,2G,2F,2 | E,6E,2E,2F,2G,2A,2 | G,2F,2D,8
B,4 | C6B,A,G,2E,2D,2G,2 | E,4z6
G,2C2E2 | D6E2F2D2CB,A,B, | C2E2G,4z2
G,2C2_B,2 | A,6A,2G,2G,2A,2B,2 | C8z2

